svg/calculator.svg

<?xml version="1.0" encoding="UTF-8" standalone="no"?>
<svg
   xmlns:dc="http://purl.org/dc/elements/1.1/"
   xmlns:cc="http://creativecommons.org/ns#"
   xmlns:rdf="http://www.w3.org/1999/02/22-rdf-syntax-ns#"
   xmlns:svg="http://www.w3.org/2000/svg"
   xmlns="http://www.w3.org/2000/svg"
   xmlns:sodipodi="http://sodipodi.sourceforge.net/DTD/sodipodi-0.dtd"
   xmlns:inkscape="http://www.inkscape.org/namespaces/inkscape"
   class="ionicon"
   viewBox="0 0 512 512"
   version="1.1"
   id="svg6"
   sodipodi:docname="calculator.svg"
   inkscape:version="1.0.2 (e86c8708, 2021-01-15)">
  <metadata
     id="metadata12">
    <rdf:RDF>
      <cc:Work
         rdf:about="">
        <dc:format>image/svg+xml</dc:format>
        <dc:type
           rdf:resource="http://purl.org/dc/dcmitype/StillImage" />
      </cc:Work>
    </rdf:RDF>
  </metadata>
  <defs
     id="defs10" />
  <sodipodi:namedview
     pagecolor="#ffffff"
     bordercolor="#666666"
     borderopacity="1"
     objecttolerance="10"
     gridtolerance="10"
     guidetolerance="10"
     inkscape:pageopacity="0"
     inkscape:pageshadow="2"
     inkscape:window-width="689"
     inkscape:window-height="480"
     id="namedview8"
     showgrid="false"
     inkscape:zoom="1.3027344"
     inkscape:cx="256"
     inkscape:cy="256"
     inkscape:window-x="44"
     inkscape:window-y="25"
     inkscape:window-maximized="0"
     inkscape:current-layer="svg6" />
  <title
     id="title2">Calculator</title>
  <path
     style="color:#000000;font-style:normal;font-variant:normal;font-weight:normal;font-stretch:normal;font-size:medium;line-height:normal;font-family:sans-serif;font-variant-ligatures:normal;font-variant-position:normal;font-variant-caps:normal;font-variant-numeric:normal;font-variant-alternates:normal;font-variant-east-asian:normal;font-feature-settings:normal;font-variation-settings:normal;text-indent:0;text-align:start;text-decoration:none;text-decoration-line:none;text-decoration-style:solid;text-decoration-color:#000000;letter-spacing:normal;word-spacing:normal;text-transform:none;writing-mode:lr-tb;direction:ltr;text-orientation:mixed;dominant-baseline:auto;baseline-shift:baseline;text-anchor:start;white-space:normal;shape-padding:0;shape-margin:0;inline-size:0;clip-rule:nonzero;display:inline;overflow:visible;visibility:visible;isolation:auto;mix-blend-mode:normal;color-interpolation:sRGB;color-interpolation-filters:linearRGB;solid-color:#000000;solid-opacity:1;vector-effect:none;fill:#000000;fill-opacity:1;fill-rule:nonzero;stroke-width:1;stroke-linecap:butt;stroke-linejoin:miter;stroke-miterlimit:4;stroke-dasharray:none;stroke-dashoffset:0;stroke-opacity:1;color-rendering:auto;image-rendering:auto;shape-rendering:auto;text-rendering:auto;enable-background:accumulate;stop-color:#000000;stop-opacity:1;stroke:none;opacity:1"
     d="M 416,80 C 415.97244,53.501756 394.49824,32.027559 368,32 H 144 c -26.49824,0.02756 -47.972441,21.501756 -48,48 v 352 c 0.02756,26.49824 21.50176,47.97244 48,48 h 224 c 26.49824,-0.0276 47.97244,-21.50176 48,-48 z M 168,432 C 146.6168,432 135.91192,406.14867 151.0303,391.0303 166.14867,375.91192 192,386.6168 192,408 c 0,13.25483 -10.74517,24 -24,24 z m 0,-80 C 146.6168,352 135.91192,326.14867 151.0303,311.0303 166.14867,295.91192 192,306.6168 192,328 c 0,13.25483 -10.74517,24 -24,24 z m 0,-80 C 146.6168,272 135.91192,246.14867 151.0303,231.0303 166.14867,215.91192 192,226.6168 192,248 c 0,13.25483 -10.74517,24 -24,24 z m 88,160 C 234.6168,432 223.91192,406.14867 239.0303,391.0303 254.14867,375.91192 280,386.6168 280,408 c 0,13.25483 -10.74517,24 -24,24 z m 0,-80 C 234.6168,352 223.91192,326.14867 239.0303,311.0303 254.14867,295.91192 280,306.6168 280,328 c 0,13.25483 -10.74517,24 -24,24 z m 0,-80 C 234.6168,272 223.91192,246.14867 239.0303,231.0303 254.14867,215.91192 280,226.6168 280,248 c 0,13.25483 -10.74517,24 -24,24 z m 112,136 c 0,13.25484 -10.74517,23.99999 -24,23.99999 -13.25483,0 -24,-10.74515 -24,-23.99999 v -80 c 0,-13.25484 10.74517,-23.99999 24,-23.99999 13.25483,0 24,10.74515 24,23.99999 z M 344,272 C 322.6168,272 311.91192,246.14867 327.0303,231.0303 342.14867,215.91192 368,226.6168 368,248 c 0,13.25483 -10.74517,24 -24,24 z m 19.31,-100.69 c -2.99907,3.00103 -7.06729,4.68803 -11.31,4.69 H 160 c -8.83656,0 -16,-7.16344 -16,-16 V 96 c 0,-8.836556 7.16344,-16 16,-16 h 192 c 8.83656,0 16,7.163444 16,16 v 64 c -0.002,4.24271 -1.68897,8.31093 -4.69,11.31 z"
     id="path4" />
</svg>

<svg xmlns="http://www.w3.org/2000/svg" width="512" height="512" viewBox="0 0 512 512"><title>ionicons-v5-d</title><path d="M416,80a48.05,48.05,0,0,0-48-48H144A48.05,48.05,0,0,0,96,80V432a48.05,48.05,0,0,0,48,48H368a48.05,48.05,0,0,0,48-48ZM168,432a24,24,0,1,1,24-24A24,24,0,0,1,168,432Zm0-80a24,24,0,1,1,24-24A24,24,0,0,1,168,352Zm0-80a24,24,0,1,1,24-24A24,24,0,0,1,168,272Zm88,160a24,24,0,1,1,24-24A24,24,0,0,1,256,432Zm0-80a24,24,0,1,1,24-24A24,24,0,0,1,256,352Zm0-80a24,24,0,1,1,24-24A24,24,0,0,1,256,272ZM368,408a24,24,0,0,1-48,0V328a24,24,0,0,1,48,0ZM344,272a24,24,0,1,1,24-24A24,24,0,0,1,344,272Zm19.31-100.69A16,16,0,0,1,352,176H160a16,16,0,0,1-16-16V96a16,16,0,0,1,16-16H352a16,16,0,0,1,16,16v64A16,16,0,0,1,363.31,171.31Z"/></svg>
